svg/arrow-elipse.svg

<svg xmlns="http://www.w3.org/2000/svg" preserveAspectRatio="xMidYMid" width="18" height="18" viewBox="0 0 18 18"><defs/><path d="M9 18A9 9 0 1 1 9 0a9 9 0 0 1 0 18zm.057-13.502L4.498 8.836l1.12 1.067 2.476-2.357v5.204h1.812V7.438c.825.785 1.65 1.571 2.477 2.355l1.119-1.066c-1.483-1.409-2.964-2.82-4.445-4.229z" class="cls-1"/></svg>

<svg xmlns="http://www.w3.org/2000/svg" xmlns:xlink="http://www.w3.org/1999/xlink" preserveAspectRatio="xMidYMid" width="18" height="18" viewBox="0 0 18 18">
  <defs>
    <style>
      .cls-1 {
        fill: #fff;
        fill-rule: evenodd;
      }
    </style>
  </defs>
  <path d="M9.000,18.000 C4.029,18.000 -0.000,13.970 -0.000,9.000 C-0.000,4.029 4.029,0.000 9.000,0.000 C13.971,0.000 18.000,4.029 18.000,9.000 C18.000,13.970 13.971,18.000 9.000,18.000 ZM9.057,4.498 C7.537,5.944 6.018,7.390 4.498,8.836 C4.871,9.192 5.245,9.547 5.618,9.903 C6.443,9.117 7.269,8.332 8.094,7.546 L8.094,12.750 L9.906,12.750 L9.906,7.438 C10.731,8.223 11.556,9.009 12.383,9.793 C12.755,9.438 13.129,9.083 13.502,8.727 C12.019,7.318 10.538,5.907 9.057,4.498 Z" class="cls-1"/>
</svg>
